svg/24/sound-effect.svg

<svg width="24" height="24" viewBox="0 0 24 24" fill="currentColor" xmlns="http://www.w3.org/2000/svg"><path d="M11.2773 4.05322C11.6125 4.18658 11.8052 4.53969 11.7361 4.89376C10.9182 9.08435 10.7628 11.4603 11.1007 13.3218C11.2719 14.2647 11.5716 15.0923 12.0062 15.9795C11.955 14.3572 12.0386 13.0099 12.2599 11.7916C12.62 9.8097 13.3359 8.21858 14.3429 6.38852C14.5113 6.08243 14.8688 5.93318 15.2049 6.02861C15.5409 6.12404 15.7666 6.43889 15.7491 6.78781C15.6372 9.00814 15.9037 10.941 16.4397 12.7523C16.6398 10.6622 17.093 8.92412 18.4156 7.27997C18.6037 7.04621 18.913 6.94701 19.2019 7.02777C19.4908 7.10853 19.7039 7.35372 19.7434 7.65112C19.9001 8.82771 20.0307 9.50229 20.2615 10.018C20.453 10.4462 20.7322 10.8028 21.2661 11.2501H22.25C22.6642 11.2501 23 11.5859 23 12.0001C23 12.4143 22.6642 12.7501 22.25 12.7501H21C20.8313 12.7501 20.6675 12.6932 20.5351 12.5886C19.762 11.978 19.2407 11.4094 18.8923 10.6307C18.7811 10.3822 18.6903 10.1179 18.613 9.83272C17.9463 11.4101 17.871 13.272 17.7586 16.0516C17.7556 16.1272 17.7525 16.2035 17.7494 16.2805C17.7354 16.6251 17.4882 16.9157 17.1504 16.9849C16.8125 17.054 16.471 16.8838 16.3228 16.5725C15.3306 14.4881 14.605 12.3377 14.3371 9.88542C14.0751 10.5849 13.8754 11.2911 13.7358 12.0598C13.415 13.8255 13.4023 15.97 13.7457 19.17C13.7833 19.5199 13.5725 19.8488 13.239 19.961C12.9055 20.0731 12.5389 19.9383 12.3574 19.6369L12.3438 19.6142C11.0009 17.3831 10.0167 15.748 9.62486 13.5898C9.35765 12.118 9.36953 10.4333 9.66631 8.16894C9.43072 8.57007 9.21131 8.98576 9.00753 9.44536C8.33912 10.9528 7.85772 12.9251 7.74961 16.2743C7.73834 16.6234 7.48748 16.9186 7.1447 16.986C6.80192 17.0534 6.45799 16.8752 6.31536 16.5563C5.61204 14.9838 5.10096 13.8104 4.76712 12.5133C4.5694 11.7451 4.43628 10.9443 4.35377 9.99911C4.34782 10.0115 4.34193 10.0239 4.3361 10.0364C4.084 10.5741 3.91966 11.1767 3.73685 12.1399C3.66967 12.4939 3.36029 12.7501 3 12.7501H1.75C1.33579 12.7501 1 12.4143 1 12.0001C1 11.5859 1.33579 11.2501 1.75 11.2501H2.38675C2.5417 10.5405 2.71631 9.95773 2.97795 9.39965C3.31119 8.68886 3.76623 8.05917 4.42381 7.26998C4.6246 7.029 4.95414 6.93843 5.24989 7.04294C5.54563 7.14745 5.7451 7.42496 5.74991 7.73859C5.78032 9.72222 5.92458 10.9924 6.21978 12.1394C6.3005 12.453 6.39303 12.7598 6.49919 13.072C6.73982 11.3075 7.13085 9.97727 7.63627 8.83736C8.17119 7.63094 8.84567 6.63054 9.53765 5.6042C9.81369 5.19477 10.0925 4.78121 10.3664 4.3488C10.5594 4.04402 10.9421 3.91985 11.2773 4.05322Z"/></svg>

<svg xmlns="http://www.w3.org/2000/svg" width="24" height="24" fill="currentColor" viewBox="0 0 24 24">
  <path d="M11.277 4.053a.75.75 0 0 1 .46.84c-.819 4.191-.974 6.567-.636 8.429.17.943.47 1.77.905 2.658-.051-1.623.033-2.97.254-4.188.36-1.982 1.076-3.573 2.083-5.403a.75.75 0 0 1 1.406.399c-.112 2.22.155 4.153.69 5.964.2-2.09.654-3.828 1.977-5.472a.75.75 0 0 1 1.327.371c.157 1.177.288 1.851.519 2.367.191.428.47.785 1.004 1.232h.984a.75.75 0 0 1 0 1.5H21a.75.75 0 0 1-.465-.161c-.773-.611-1.294-1.18-1.643-1.958a5.407 5.407 0 0 1-.279-.798c-.667 1.577-.742 3.439-.854 6.219l-.01.229a.75.75 0 0 1-1.426.292c-.992-2.085-1.718-4.235-1.986-6.688a12.46 12.46 0 0 0-.601 2.175c-.321 1.765-.334 3.91.01 7.11a.75.75 0 0 1-1.389.467l-.013-.023c-1.343-2.23-2.327-3.866-2.72-6.024-.266-1.472-.254-3.157.042-5.421-.235.401-.455.817-.658 1.276-.669 1.508-1.15 3.48-1.258 6.83a.75.75 0 0 1-1.435.281c-.703-1.572-1.214-2.746-1.548-4.043A15.192 15.192 0 0 1 4.354 10a3.65 3.65 0 0 0-.018.037c-.252.538-.416 1.14-.6 2.104a.75.75 0 0 1-.736.61H1.75a.75.75 0 0 1 0-1.5h.637c.155-.71.33-1.292.59-1.85.334-.711.79-1.34 1.447-2.13a.75.75 0 0 1 1.326.469c.03 1.983.175 3.253.47 4.4.08.314.173.62.28.933.24-1.764.63-3.095 1.136-4.235.535-1.206 1.21-2.206 1.902-3.233.276-.41.554-.823.828-1.255a.75.75 0 0 1 .911-.296Z"/>
</svg>
